brandFactory_export/2.Regular/Imagen_2Regular.svg

<?xml version="1.0" encoding="UTF-8"?>
<svg width="24px" height="24px" viewBox="0 0 24 24" version="1.1" xmlns="http://www.w3.org/2000/svg" xmlns:xlink="http://www.w3.org/1999/xlink">
    <title>2.Regular/Imagen_2Regular</title>
    <g id="Symbols" stroke="none" stroke-width="1" fill="none" fill-rule="evenodd">
        <g id="2.Regular/Imagen_2Regular" fill="#5CB615" fill-rule="nonzero">
            <path d="M21.7142857,19.2957983 C21.9462185,19.2957983 22.1546218,19.1210084 22.1815126,19.0470588 L22.1781513,4.70084034 C22.1546218,4.65714286 21.9462185,4.48235294 21.7176471,4.48235294 L1.9092437,4.48235294 C1.65714286,4.48235294 1.47226891,4.64033613 1.44537815,4.71092437 L1.44537815,19.0773109 C1.46218487,19.1310924 1.65042017,19.2957983 1.9092437,19.2957983 L21.7142857,19.2957983 Z M21.7142857,3.02689076 C22.712605,3.02689076 23.6235294,3.82352941 23.6235294,4.69747899 L23.6235294,19.0739496 C23.6235294,19.9478992 22.712605,20.7445378 21.7142857,20.7445378 L1.9092437,20.7445378 C0.87394958,20.7445378 0,19.9781513 0,19.0739496 L0,4.69747899 C0,3.79327731 0.87394958,3.02689076 1.9092437,3.02689076 L21.7142857,3.02689076 Z M6,7.15462185 C5.33781513,7.15462185 4.79663866,7.69579832 4.79663866,8.36134454 C4.79663866,9.02689076 5.33781513,9.56806723 6,9.56806723 C6.66218487,9.56806723 7.20336134,9.02689076 7.20336134,8.36134454 C7.20336134,7.69579832 6.66554622,7.15462185 6,7.15462185 L6,7.15462185 Z M6,11.0201681 C4.53781513,11.0201681 3.34789916,9.82689076 3.34789916,8.36134454 C3.34789916,6.89579832 4.53781513,5.70252101 6,5.70252101 C7.46218487,5.70252101 8.6487395,6.89579832 8.6487395,8.36134454 C8.6487395,9.82689076 7.46218487,11.0201681 6,11.0201681 Z M17.0890756,9.69579832 L20.9042017,12.6235294 C21.2201681,12.8689076 21.2806723,13.3226891 21.0386555,13.6420168 C20.7966387,13.9579832 20.3428571,14.0218487 20.0235294,13.7764706 L16.6554622,11.1915966 L12.897479,14.1865546 L15.2168067,16.3747899 C15.5058824,16.6470588 15.5226891,17.107563 15.2470588,17.4 C14.9747899,17.6957983 14.5142857,17.7058824 14.2252101,17.4302521 L10.2554622,13.6823529 L4.54453782,18.4521008 C4.41008403,18.5663866 4.24537815,18.6201681 4.08403361,18.6201681 C3.87563025,18.6201681 3.67058824,18.5327731 3.52605042,18.3579832 C3.27058824,18.0487395 3.31428571,17.5915966 3.62016807,17.3361345 L9.82184874,12.1563025 C10.1008403,11.9210084 10.5142857,11.9344538 10.7798319,12.1865546 L11.8352941,13.1815126 L16.1983193,9.70252101 C16.4571429,9.49747899 16.8235294,9.49411765 17.0890756,9.69579832 Z" id="Imagen_2Regular"></path>
        </g>
    </g>
</svg>

<svg width="24" height="24" viewBox="0 0 24 24" xmlns="http://www.w3.org/2000/svg"><path d="M21.714 19.296c.232 0 .44-.175.468-.249l-.004-14.346a.666.666 0 00-.46-.219H1.909c-.252 0-.437.158-.464.229v14.366c.017.054.205.219.464.219h19.805zm0-16.27c.999 0 1.91.798 1.91 1.671v14.377c0 .874-.911 1.67-1.91 1.67H1.91C.874 20.745 0 19.979 0 19.075V4.697c0-.904.874-1.67 1.91-1.67h19.804zM6 7.156a1.207 1.207 0 000 2.413 1.207 1.207 0 000-2.413zm0 3.865a2.659 2.659 0 010-5.317A2.656 2.656 0 018.649 8.36 2.656 2.656 0 016 11.021zm11.09-1.324l3.814 2.928a.73.73 0 01.135 1.018.723.723 0 01-1.015.134l-3.369-2.584-3.758 2.995 2.32 2.188c.289.272.306.733.03 1.025a.717.717 0 01-1.022.03l-3.97-3.748-5.71 4.77a.718.718 0 01-1.018-.094.728.728 0 01.093-1.022l6.202-5.18a.72.72 0 01.958.03l1.055.996 4.363-3.48a.727.727 0 01.891-.006z" fill="#5CB615" fill-rule="nonzero"/></svg>
